packages/foundations/assets/icons/functional/images/devices/printer_14_filled.svg

<svg width="14" height="14" viewBox="0 0 14 14" fill="none" xmlns="http://www.w3.org/2000/svg">
<g clip-path="url(#clip0_2204_2766)">
<path fill-rule="evenodd" clip-rule="evenodd" d="M9.80002 1.39999C10.1643 1.39999 10.5057 1.67245 10.5057 2.03739V2.78861H11.4618C12.0992 2.78861 12.6 3.31177 12.6 3.92683V7.8878C12.6 8.50243 12.1447 9.0943 11.5301 9.0943H10.5057V11.8943C10.5057 12.2585 10.2333 12.6 9.89108 12.6H4.20002C3.8358 12.6 3.49433 12.3268 3.49433 11.9854V9.0943H2.53824C1.90084 9.0943 1.40002 8.57072 1.40002 7.95609V4.01788C1.40002 3.38048 1.85531 2.78861 2.46994 2.78861H3.49433V2.10568C3.49433 1.74145 3.76679 1.39999 4.13173 1.39999H9.80002ZM9.10002 7.69999H4.90002V11.2H9.10002V7.69999ZM5.60002 4.19999H3.50002V5.59999H5.60002V4.19999Z" fill="#1A1C1F"/>
</g>
<defs>
<clipPath id="clip0_2204_2766">
<rect width="14" height="14" fill="white"/>
</clipPath>
</defs>
</svg>

<svg xmlns="http://www.w3.org/2000/svg" width="14" height="14" fill="none"><g clip-path="url(#a)"><path fill="#1A1C1F" fill-rule="evenodd" d="M9.8 1.4c.364 0 .706.272.706.637v.752h.956c.637 0 1.138.523 1.138 1.138v3.96c0 .615-.455 1.207-1.07 1.207h-1.024v2.8c0 .364-.273.706-.615.706H4.2c-.364 0-.706-.273-.706-.615v-2.89h-.956A1.14 1.14 0 0 1 1.4 7.955V4.018c0-.638.455-1.23 1.07-1.23h1.024v-.682c0-.365.273-.706.638-.706zm-.7 6.3H4.9v3.5h4.2zM5.6 4.2H3.5v1.4h2.1z" clip-rule="evenodd"/></g><defs><clipPath id="a"><path fill="#fff" d="M0 0h14v14H0z"/></clipPath></defs></svg>
